cba/assets/search.svg

<?xml version="1.0" encoding="iso-8859-1"?>
<!-- Generator: Adobe Illustrator 19.0.0, SVG Export Plug-In . SVG Version: 6.00 Build 0)  -->
<svg version="1.1" id="Capa_1" xmlns="http://www.w3.org/2000/svg" xmlns:xlink="http://www.w3.org/1999/xlink" x="0px" y="0px"
	 viewBox="0 0 69.961 69.961" style="enable-background:new 0 0 69.961 69.961;" xml:space="preserve">
<g>
	<path d="M66.829,51.329L56.593,41.093c1.479-3.56,2.248-7.387,2.248-11.282c0-16.222-13.198-29.42-29.421-29.42
		C13.198,0.391,0,13.589,0,29.811c0,16.223,13.198,29.421,29.42,29.421c4.318,0,8.518-0.932,12.37-2.724l9.931,9.932
		c2.019,2.019,4.701,3.13,7.556,3.13s5.539-1.112,7.557-3.132c2.016-2.015,3.127-4.698,3.127-7.553
		C69.96,56.032,68.849,53.348,66.829,51.329z M62.588,62.198c-0.914,0.915-2.113,1.372-3.312,1.372s-2.397-0.457-3.313-1.372
		L42.798,49.031c-3.794,2.646-8.403,4.201-13.378,4.201C16.485,53.232,6,42.746,6,29.811s10.485-23.42,23.42-23.42
		s23.421,10.485,23.421,23.42c0,4.57-1.314,8.832-3.578,12.438l13.325,13.325C64.418,57.403,64.418,60.369,62.588,62.198z"/>
	<path d="M29.42,13.061c-9.235,0-16.749,7.514-16.749,16.75s7.514,16.75,16.749,16.75c9.236,0,16.75-7.514,16.75-16.75
		S38.656,13.061,29.42,13.061z M29.42,40.561c-5.927,0-10.749-4.822-10.749-10.75s4.822-10.75,10.749-10.75
		c5.928,0,10.75,4.822,10.75,10.75S35.348,40.561,29.42,40.561z"/>
</g>
<g>
</g>
<g>
</g>
<g>
</g>
<g>
</g>
<g>
</g>
<g>
</g>
<g>
</g>
<g>
</g>
<g>
</g>
<g>
</g>
<g>
</g>
<g>
</g>
<g>
</g>
<g>
</g>
<g>
</g>
</svg>

<svg width="70" height="70" viewBox="0 0 70 70" fill="none" xmlns="http://www.w3.org/2000/svg">
<path d="M66.829 51.329L56.593 41.093C58.072 37.533 58.841 33.706 58.841 29.811C58.841 13.589 45.643 0.391006 29.42 0.391006C13.198 0.391006 0 13.589 0 29.811C0 46.034 13.198 59.232 29.42 59.232C33.738 59.232 37.938 58.3 41.79 56.508L51.721 66.44C53.74 68.459 56.422 69.57 59.277 69.57C62.132 69.57 64.816 68.458 66.834 66.438C68.85 64.423 69.961 61.74 69.961 58.885C69.96 56.032 68.849 53.348 66.829 51.329ZM62.588 62.198C61.674 63.113 60.475 63.57 59.276 63.57C58.077 63.57 56.879 63.113 55.963 62.198L42.798 49.031C39.004 51.677 34.395 53.232 29.42 53.232C16.485 53.232 6 42.746 6 29.811C6 16.876 16.485 6.39101 29.42 6.39101C42.355 6.39101 52.841 16.876 52.841 29.811C52.841 34.381 51.527 38.643 49.263 42.249L62.588 55.574C64.418 57.403 64.418 60.369 62.588 62.198Z" fill="white"/>
<path d="M24 3L8 13.5C7.16667 15 5.4 18.2 5 19C4.5 20 4 21.5 4 23.5C4 25.5 4.5 28.5 5 32C5.5 35.5 5 38.5 5.5 41C6 43.5 12 47 14 49C16 51 15 50.5 18 53.5C21 56.5 20 55 22.5 55C25 55 26.5 56 27.5 55C28.5 54 36.5 53.5 38.5 53.5C40.5 53.5 43 55 44 56C44.8 56.8 50.6667 60.6667 53.5 62.5C55.8333 63.8333 61 66.5 63 66.5C65 66.5 66.1667 60.1667 66.5 57C62.1667 51.5 53.5 40.3 53.5 39.5C53.5 38.7 54.5 34.5 55 32.5C54.8333 28.8333 54.6 21 55 19C55.4 17 47.8333 10.1667 44 7L24 3Z" fill="white" fill-opacity="0.3"/>
<path d="M29.42 13.061C20.185 13.061 12.671 20.575 12.671 29.811C12.671 39.047 20.185 46.561 29.42 46.561C38.656 46.561 46.17 39.047 46.17 29.811C46.17 20.575 38.656 13.061 29.42 13.061ZM29.42 40.561C23.493 40.561 18.671 35.739 18.671 29.811C18.671 23.883 23.493 19.061 29.42 19.061C35.348 19.061 40.17 23.883 40.17 29.811C40.17 35.739 35.348 40.561 29.42 40.561Z" fill="white"/>
</svg>
